X:1
T:The Boys From Wexford
L:1/8
Q:1/4=140
M:4/4
K:G
"G""^The Boys From Wexford" z8 |"C" z8 |"Em7" z8 |"D" z8 |
"G" z8 |"C" z8 |"Em7""D" z8 |"G" z8 ||
"C" e6 g e |"Em7" d4 B2 d2 |"Am7" c2 B2 A2 G2 |"D" E6 F2 |
"G" G3 A GF E<D |"C" d3 e d2 c2 |"Em7" B2 G>A"D" BA GF |"G" G4 G4 ||
